src/icons/main-maximize.svg

<svg enable-background="new 0 0 14 13" viewBox="0 0 14 13" xmlns="http://www.w3.org/2000/svg"><path d="m13.3 0h-3.5c-.4 0-.7.3-.7.6s.3.6.7.6h1.8l-3.7 3.5c-.1.2-.2.3-.2.5 0 .4.3.7.7.7.2 0 .4-.1.5-.2l3.7-3.4v1.7c0 .4.3.7.7.7s.7-.4.7-.8v-3.3c0-.3-.3-.6-.7-.6zm-7.7 7.2c-.2 0-.4.1-.5.2l-3.7 3.4v-1.7c0-.4-.3-.7-.7-.7s-.7.3-.7.7v3.2c0 .4.3.7.7.7h3.5c.4 0 .7-.3.7-.6s-.3-.7-.7-.7h-1.8l3.7-3.4c.1-.2.2-.3.2-.5 0-.4-.3-.6-.7-.6z" fill="#4d5969"/></svg>

<?xml version="1.0" encoding="utf-8"?>
<!-- Generator: Adobe Illustrator 20.1.0, SVG Export Plug-In . SVG Version: 6.00 Build 0)  -->
<svg version="1.1" id="Layer_1" xmlns="http://www.w3.org/2000/svg" xmlns:xlink="http://www.w3.org/1999/xlink" x="0px" y="0px"
	 viewBox="0 0 14 13" style="enable-background:new 0 0 14 13;" xml:space="preserve">
<style type="text/css">
	.st0{fill:#4D5969;}
</style>
<title>HDL/Icon/Standard/maximize</title>
<desc>Created with Sketch.</desc>
<g id="Colors">
	<g id="Main-Icons" transform="translate(-122.000000, -548.000000)">
		<g id="Maximize" transform="translate(101.000000, 529.000000)">
			<g id="HDL_x2F_Icon_x2F_Standard_x2F_maximize" transform="translate(21.000000, 19.000000)">
				<path id="Shape" class="st0" d="M13.3,0H9.8C9.4,0,9.1,0.3,9.1,0.6s0.3,0.6,0.7,0.6h1.8L7.9,4.7C7.8,4.9,7.7,5,7.7,5.2
					c0,0.4,0.3,0.7,0.7,0.7c0.2,0,0.4-0.1,0.5-0.2l3.7-3.4v1.7c0,0.4,0.3,0.7,0.7,0.7S14,4.3,14,3.9V0.6C14,0.3,13.7,0,13.3,0z
					 M5.6,7.2c-0.2,0-0.4,0.1-0.5,0.2l-3.7,3.4V9.1c0-0.4-0.3-0.7-0.7-0.7S0,8.7,0,9.1v3.2C0,12.7,0.3,13,0.7,13h3.5
					c0.4,0,0.7-0.3,0.7-0.6s-0.3-0.7-0.7-0.7H2.4l3.7-3.4C6.2,8.1,6.3,8,6.3,7.8C6.3,7.4,6,7.2,5.6,7.2z"/>
			</g>
		</g>
	</g>
</g>
</svg>
